src/img/HomePage/Chopsticks/egg.svg

<?xml version="1.0" encoding="UTF-8"?> <svg xmlns="http://www.w3.org/2000/svg" width="63" height="66" viewBox="0 0 63 66" fill="none"> <path fill-rule="evenodd" clip-rule="evenodd" d="M7.50979 17.7211C4.97932 21.1638 1.67706 28.0718 0.889441 32.8509C-0.863418 43.4914 3.33217 53.6853 12.2186 60.3737C14.7343 62.2675 16.4268 63.1144 20.0488 64.2923C25.1495 65.951 27.7725 66.1599 33.0466 65.3282C41.5168 63.9929 49.3119 58.7126 54.9019 50.5235C57.96 46.0433 59.2628 43.3669 60.7362 38.5377C62.8824 31.5045 63.3052 27.414 62.5481 21.0131C61.0276 8.15934 52.014 -0.00918096 39.3949 0.0302103C37.7841 0.0352378 36.2739 0.137627 36.0383 0.257951C36.0383 0.257951 31.6117 1.07116 29.8209 1.60517C28.3485 2.04416 25.613 3.15669 23.7425 4.07677C23.7425 4.07677 22.9612 4.29706 20.6559 5.65217C18.3507 7.00728 18.9108 6.75715 17.8758 7.48788C17.295 7.89825 15.6253 9.27127 14.1654 10.5395C12.7056 11.8076 12.0559 12.4085 10.9279 13.5142C10.3683 14.0628 7.50979 17.7211 7.50979 17.7211ZM45.106 2.77971C47.4637 3.41342 51.3714 5.43647 53.6205 7.18819C55.2943 8.49172 55.8962 9.30238 57.4946 12.403C59.9324 17.1327 60.6585 20.3599 60.5763 26.0978C60.4982 31.555 60.2474 33.0277 58.5066 38.2616C56.2722 44.9786 52.9605 50.2883 47.5759 55.7863C45.3197 58.0902 38.9634 61.669 35.304 62.6956C31.9062 63.6491 26.3125 63.7014 22.506 62.8159C19.6262 62.1457 13.1759 58.8523 11.7046 57.301C11.2832 56.8567 10.6956 56.3826 10.3986 56.2475C9.3547 55.772 5.92702 50.4015 4.48369 46.9799C3.31564 44.2106 2.99471 42.7892 2.82823 39.6541C2.55398 34.4954 3.14948 31.1696 5.19163 26.4495C7.25151 21.6872 9.10847 18.8015 12.1876 15.5759C17.214 10.3108 19.0379 8.97126 25.2507 5.98346C30.5522 3.43334 31.3427 3.16624 35.0248 2.67822C39.4359 2.09357 42.6745 2.12615 45.106 2.77971Z" fill="#FA007A"></path> <path d="M22.0106 26.2926C20.8039 27.0775 19.3104 28.4194 18.692 29.2746C17.7119 30.6296 17.668 30.9 18.3503 31.3746C19.3021 32.0367 19.4694 31.9609 20.9204 30.2055C21.5509 29.4426 22.6996 28.3698 23.4735 27.8219C24.6196 27.0095 24.8178 26.6435 24.5423 25.8454C24.2094 24.8796 24.1734 24.886 22.0106 26.2926Z" fill="#FA007A"></path> <path fill-rule="evenodd" clip-rule="evenodd" d="M44.3275 22.1667C42.042 19.512 37.6108 17.1947 33.963 16.7476C27.5047 15.9551 21.3512 18.2281 16.4766 23.2071C13.3205 26.4312 11.9087 28.7508 10.9136 32.3493C9.35544 37.9831 9.82181 41.9762 12.6293 47.0356C14.3874 50.2043 14.8616 50.7621 17.4129 52.6617C20.7279 55.13 25.0868 56.4328 29.4148 56.249C33.3395 56.0821 38.7715 53.6073 41.9554 50.535C44.284 48.2876 47.2964 43.3793 47.9522 40.7633C48.6879 37.8283 48.8905 34.0729 48.4607 31.3328C48.0101 28.4583 46.1033 24.2297 44.3275 22.1667ZM31.5594 18.9392C36.4935 19.065 39.4788 20.2972 42.3767 23.4031C44.6728 25.8638 46.4573 30.213 46.5009 33.4536C46.5211 34.985 46.0432 37.7758 46.0432 37.7758C46.0432 37.7758 44.977 43.0326 42.6782 46.2649C40.6365 49.135 40.1199 49.6053 36.9589 51.4657C34.3716 52.9885 33.5966 53.1463 33.5966 53.1463C33.5966 53.1463 30.9189 53.7278 29.3395 53.8381C24.228 54.195 20.4638 52.6026 16.9552 49.5041C15.5982 48.3059 15.0201 47.4106 13.8303 44.6644C11.8814 40.1651 11.7406 36.9397 13.2953 32.4158C14.8326 27.9425 16.9552 25.0085 20.3968 22.5993C24.4253 19.7795 27.3181 18.8313 31.5594 18.9392Z" fill="#FA007A"></path> <path d="M39.2331 23.5359C37.1435 22.0299 36.3698 21.9641 36.0206 23.2636C35.7447 24.2905 35.7868 24.3587 36.9661 24.7881C37.6452 25.0355 38.3154 25.4621 38.4557 25.7367C38.7235 26.2609 40.5435 25.56 40.5944 24.9132C40.6107 24.7068 39.9981 24.0872 39.2331 23.5359Z" fill="#FA007A"></path> <path d="M37.067 34.2705C36.8581 34.3772 36.8183 34.7213 36.9786 35.0352C37.139 35.349 37.4411 35.5185 37.65 35.4117C37.859 35.305 37.8987 34.9609 37.7384 34.647C37.5781 34.3332 37.2759 34.1637 37.067 34.2705Z" fill="#FA007A"></path> <path d="M38.0607 38.5598C37.7473 38.7199 37.5783 39.0221 37.6852 39.2313C37.7921 39.4405 38.136 39.4807 38.4494 39.3206C38.7628 39.1605 38.9318 38.8583 38.8249 38.6491C38.718 38.4398 38.3741 38.3997 38.0607 38.5598Z" fill="#FA007A"></path> <path d="M42.3303 37.6709C41.8715 37.522 41.4536 38.1686 41.6987 38.6483C41.7993 38.8454 42.138 38.8753 42.4514 38.7152C43.0387 38.4152 42.9769 37.8807 42.3303 37.6709Z" fill="#FA007A"></path> <path d="M41.2589 33.568C40.9455 33.7281 40.7765 34.0303 40.8834 34.2396C40.9903 34.4488 41.3342 34.489 41.6476 34.3289C41.961 34.1687 42.13 33.8666 42.0231 33.6573C41.9162 33.4481 41.5723 33.4079 41.2589 33.568Z" fill="#FA007A"></path> <path d="M45.2296 32.6088C44.6454 33.2037 44.9472 34.0823 45.618 33.7396C45.9489 33.5705 46.081 33.1615 45.9118 32.8302C45.7425 32.4988 45.4357 32.3989 45.2296 32.6088Z" fill="#FA007A"></path> <path d="M44.7089 28.288C44.0483 28.0733 43.6809 28.4634 43.9845 29.0576C44.1448 29.3715 44.5324 29.4972 44.8458 29.3371C45.4392 29.034 45.3696 28.5021 44.7089 28.288Z" fill="#FA007A"></path> <path d="M40.4552 29.1817C40.1068 29.3597 39.9775 29.6579 40.1672 29.8445C40.3569 30.0311 40.6747 30.1009 40.873 29.9996C41.0713 29.8983 41.201 29.5999 41.161 29.3368C41.1209 29.0738 40.8035 29.0037 40.4552 29.1817Z" fill="#FA007A"></path> <path d="M38.6386 42.5818C38.3077 42.7508 38.2083 43.0578 38.4182 43.2643C39.0133 43.8496 39.8908 43.5486 39.5476 42.8768C39.3783 42.5454 38.9695 42.4128 38.6386 42.5818Z" fill="#FA007A"></path> <path d="M34.8625 43.5515C34.5491 43.7116 34.3801 44.0138 34.487 44.223C34.5939 44.4322 34.9378 44.4724 35.2512 44.3123C35.5646 44.1522 35.7336 43.85 35.6267 43.6408C35.5198 43.4316 35.1759 43.3914 34.8625 43.5515Z" fill="#FA007A"></path> <path d="M31.0593 44.1475C30.8731 44.3371 30.8037 44.6551 30.9051 44.8537C31.0066 45.0523 31.3049 45.1824 31.5677 45.1426C31.8305 45.1029 31.9001 44.7853 31.7219 44.4364C31.5437 44.0876 31.2455 43.9578 31.0593 44.1475Z" fill="#FA007A"></path> <path d="M31.8543 48.4462C31.6453 48.553 31.5566 48.8012 31.6572 48.9983C31.7579 49.1953 32.0651 49.3747 32.3401 49.3973C32.6151 49.4199 32.7037 49.1712 32.5371 48.8452C32.3706 48.5192 32.0632 48.3395 31.8543 48.4462Z" fill="#FA007A"></path> <path d="M35.6619 47.4604C35.453 47.5671 35.4132 47.9113 35.5735 48.2251C35.7338 48.5389 36.036 48.7084 36.2449 48.6016C36.4538 48.4949 36.4936 48.1508 36.3333 47.837C36.1729 47.5231 35.8708 47.3537 35.6619 47.4604Z" fill="#FA007A"></path> <path d="M39.8762 46.7465C39.5506 46.9128 39.3714 47.2203 39.4783 47.4295C39.5852 47.6387 39.8333 47.7278 40.0301 47.6273C40.2269 47.5268 40.4057 47.2195 40.428 46.9443C40.4503 46.6691 40.2018 46.5802 39.8762 46.7465Z" fill="#FA007A"></path> <path d="M28.1084 49.2407C27.4479 49.026 27.0805 49.4162 27.384 50.0104C27.5444 50.3242 27.932 50.45 28.2454 50.2899C28.8388 49.9867 28.7692 49.4548 28.1084 49.2407Z" fill="#FA007A"></path> <path d="M23.8547 50.1345C23.5413 50.2946 23.3723 50.5967 23.4792 50.806C23.5861 51.0152 23.93 51.0554 24.2434 50.8953C24.5568 50.7352 24.7258 50.433 24.6189 50.2238C24.512 50.0145 24.1681 49.9743 23.8547 50.1345Z" fill="#FA007A"></path> <path d="M42.862 41.8633C42.6531 41.97 42.6134 42.3141 42.7737 42.628C42.934 42.9418 43.2361 43.1112 43.4451 43.0045C43.654 42.8978 43.6938 42.5537 43.5334 42.2398C43.3731 41.926 43.071 41.7565 42.862 41.8633Z" fill="#FA007A"></path> <path fill-rule="evenodd" clip-rule="evenodd" d="M53.6205 7.18819C51.3714 5.43647 47.4637 3.41342 45.106 2.77971C42.6745 2.12615 39.4359 2.09357 35.0248 2.67822C31.3427 3.16624 30.5522 3.43334 25.2507 5.98346C19.0379 8.97126 17.214 10.3108 12.1876 15.5759C9.10847 18.8015 7.25151 21.6872 5.19163 26.4495C3.14948 31.1696 2.55398 34.4954 2.82823 39.6541C2.99471 42.7892 3.31564 44.2106 4.48369 46.9799C5.92702 50.4015 9.3547 55.772 10.3986 56.2475C10.6956 56.3826 11.2832 56.8567 11.7046 57.301C13.1759 58.8523 19.6262 62.1457 22.506 62.8159C26.3125 63.7014 31.9062 63.6491 35.304 62.6956C38.9634 61.669 45.3197 58.0902 47.5759 55.7863C52.9605 50.2883 56.2722 44.9786 58.5066 38.2616C60.2474 33.0277 60.4982 31.555 60.5763 26.0978C60.6585 20.3599 59.9324 17.1327 57.4946 12.403C55.8962 9.30238 55.2943 8.49172 53.6205 7.18819ZM33.963 16.7476C37.6108 17.1947 42.042 19.512 44.3275 22.1667C46.1033 24.2297 48.0101 28.4583 48.4607 31.3328C48.8905 34.0729 48.6879 37.8283 47.9522 40.7633C47.2964 43.3793 44.284 48.2876 41.9554 50.535C38.7715 53.6073 33.3395 56.0821 29.4148 56.249C25.0868 56.4328 20.7279 55.13 17.4129 52.6617C14.8616 50.7621 14.3874 50.2043 12.6293 47.0356C9.82181 41.9762 9.35544 37.9831 10.9136 32.3493C11.9087 28.7508 13.3205 26.4312 16.4766 23.2071C21.3512 18.2281 27.5047 15.9551 33.963 16.7476Z" fill="#FAF5E5"></path> <path fill-rule="evenodd" clip-rule="evenodd" d="M42.3767 23.4031C39.4788 20.2972 36.4935 19.065 31.5594 18.9392C27.3181 18.8313 24.4253 19.7795 20.3968 22.5993C16.9552 25.0085 14.8326 27.9425 13.2953 32.4158C11.7406 36.9397 11.8814 40.1651 13.8303 44.6644C15.0201 47.4106 15.5982 48.3059 16.9552 49.5041C20.4638 52.6026 24.228 54.195 29.3395 53.8381C30.9189 53.7278 33.5966 53.1463 33.5966 53.1463C33.5966 53.1463 34.3716 52.9885 36.9589 51.4657C40.1199 49.6053 40.6365 49.135 42.6782 46.2649C44.977 43.0326 46.0432 37.7758 46.0432 37.7758C46.0432 37.7758 46.5211 34.985 46.5009 33.4536C46.4573 30.213 44.6728 25.8638 42.3767 23.4031ZM43.9845 29.0576C43.6809 28.4634 44.0483 28.0733 44.7089 28.288C45.3696 28.5021 45.4392 29.034 44.8458 29.3371C44.5324 29.4972 44.1448 29.3715 43.9845 29.0576ZM45.618 33.7396C44.9472 34.0823 44.6454 33.2037 45.2296 32.6088C45.4357 32.3989 45.7425 32.4988 45.9118 32.8302C46.081 33.1615 45.9489 33.5705 45.618 33.7396ZM36.0206 23.2636C36.3698 21.9641 37.1435 22.0299 39.2331 23.5359C39.9981 24.0872 40.6107 24.7068 40.5944 24.9132C40.5435 25.56 38.7235 26.2609 38.4557 25.7367C38.3154 25.4621 37.6452 25.0355 36.9661 24.7881C35.7868 24.3587 35.7447 24.2905 36.0206 23.2636ZM40.1672 29.8445C39.9775 29.6579 40.1068 29.3597 40.4552 29.1817C40.8035 29.0037 41.1209 29.0738 41.161 29.3368C41.201 29.5999 41.0713 29.8983 40.873 29.9996C40.6747 30.1009 40.3569 30.0311 40.1672 29.8445ZM40.8834 34.2396C40.7765 34.0303 40.9455 33.7281 41.2589 33.568C41.5723 33.4079 41.9162 33.4481 42.0231 33.6573C42.13 33.8666 41.961 34.1687 41.6476 34.3289C41.3342 34.489 40.9903 34.4488 40.8834 34.2396ZM41.6987 38.6483C41.4536 38.1686 41.8715 37.522 42.3303 37.6709C42.9769 37.8807 43.0387 38.4152 42.4514 38.7152C42.138 38.8753 41.7993 38.8454 41.6987 38.6483ZM42.7737 42.628C42.6134 42.3141 42.6531 41.97 42.862 41.8633C43.071 41.7565 43.3731 41.926 43.5334 42.2398C43.6938 42.5537 43.654 42.8978 43.4451 43.0045C43.2361 43.1112 42.934 42.9418 42.7737 42.628ZM36.9786 35.0352C36.8183 34.7213 36.8581 34.3772 37.067 34.2705C37.2759 34.1637 37.5781 34.3332 37.7384 34.647C37.8987 34.9609 37.859 35.305 37.65 35.4117C37.4411 35.5185 37.139 35.349 36.9786 35.0352ZM37.6852 39.2313C37.5783 39.0221 37.7473 38.7199 38.0607 38.5598C38.3741 38.3997 38.718 38.4398 38.8249 38.6491C38.9318 38.8583 38.7628 39.1605 38.4494 39.3206C38.136 39.4807 37.7921 39.4405 37.6852 39.2313ZM38.4182 43.2643C38.2083 43.0578 38.3077 42.7508 38.6386 42.5818C38.9695 42.4128 39.3783 42.5454 39.5476 42.8768C39.8908 43.5486 39.0133 43.8496 38.4182 43.2643ZM39.4783 47.4295C39.3714 47.2203 39.5506 46.9128 39.8762 46.7465C40.2018 46.5802 40.4503 46.6691 40.428 46.9443C40.4057 47.2195 40.2269 47.5268 40.0301 47.6273C39.8333 47.7278 39.5852 47.6387 39.4783 47.4295ZM34.487 44.223C34.3801 44.0138 34.5491 43.7116 34.8625 43.5515C35.1759 43.3914 35.5198 43.4316 35.6267 43.6408C35.7336 43.85 35.5646 44.1522 35.2512 44.3123C34.9378 44.4724 34.5939 44.4322 34.487 44.223ZM35.5735 48.2251C35.4132 47.9113 35.453 47.5671 35.6619 47.4604C35.8708 47.3537 36.1729 47.5231 36.3333 47.837C36.4936 48.1508 36.4538 48.4949 36.2449 48.6016C36.036 48.7084 35.7338 48.5389 35.5735 48.2251ZM18.692 29.2746C19.3104 28.4194 20.8039 27.0775 22.0106 26.2926C24.1734 24.886 24.2094 24.8796 24.5423 25.8454C24.8178 26.6435 24.6196 27.0095 23.4735 27.8219C22.6996 28.3698 21.5509 29.4426 20.9204 30.2055C19.4694 31.9609 19.3021 32.0367 18.3503 31.3746C17.668 30.9 17.7119 30.6296 18.692 29.2746ZM30.9051 44.8537C30.8037 44.6551 30.8731 44.3371 31.0593 44.1475C31.2455 43.9578 31.5437 44.0876 31.7219 44.4364C31.9001 44.7853 31.8305 45.1029 31.5677 45.1426C31.3049 45.1824 31.0066 45.0523 30.9051 44.8537ZM31.6572 48.9983C31.5566 48.8012 31.6453 48.553 31.8543 48.4462C32.0632 48.3395 32.3706 48.5192 32.5371 48.8452C32.7037 49.1712 32.6151 49.4199 32.3401 49.3973C32.0651 49.3747 31.7579 49.1953 31.6572 48.9983ZM27.384 50.0104C27.0805 49.4162 27.4479 49.026 28.1084 49.2407C28.7692 49.4548 28.8388 49.9867 28.2454 50.2899C27.932 50.45 27.5444 50.3242 27.384 50.0104ZM23.4792 50.806C23.3723 50.5967 23.5413 50.2946 23.8547 50.1345C24.1681 49.9743 24.512 50.0145 24.6189 50.2238C24.7258 50.433 24.5568 50.7352 24.2434 50.8953C23.93 51.0554 23.5861 51.0152 23.4792 50.806Z" fill="#FAF5E5"></path> </svg>

<svg xmlns="http://www.w3.org/2000/svg" width="63" height="66" fill="none"><path fill-rule="evenodd" clip-rule="evenodd" d="M7.51 17.721c-2.53 3.443-5.833 10.35-6.62 15.13-1.753 10.64 2.442 20.834 11.329 27.523 2.515 1.893 4.208 2.74 7.83 3.918 5.1 1.659 7.724 1.868 12.998 1.036 8.47-1.335 16.265-6.615 21.855-14.805 3.058-4.48 4.36-7.156 5.834-11.985 2.146-7.033 2.57-11.124 1.812-17.525C61.028 8.16 52.014-.009 39.395.03c-1.61.005-3.121.108-3.357.228 0 0-4.426.813-6.217 1.347-1.473.44-4.208 1.552-6.079 2.472 0 0-.78.22-3.086 1.575-2.305 1.355-1.745 1.105-2.78 1.836-.581.41-2.25 1.783-3.71 3.051-1.46 1.269-2.11 1.87-3.238 2.975-.56.549-3.418 4.207-3.418 4.207ZM45.106 2.78c2.358.633 6.265 2.656 8.514 4.408 1.674 1.304 2.276 2.114 3.875 5.215 2.437 4.73 3.163 7.957 3.081 13.695-.078 5.457-.329 6.93-2.07 12.164-2.234 6.717-5.545 12.026-10.93 17.524-2.256 2.304-8.613 5.883-12.272 6.91-3.398.953-8.992 1.005-12.798.12-2.88-.67-9.33-3.964-10.801-5.515-.422-.444-1.01-.918-1.306-1.053-1.044-.476-4.472-5.846-5.915-9.268-1.168-2.77-1.49-4.19-1.656-7.326-.274-5.159.321-8.484 2.364-13.205 2.06-4.762 3.916-7.648 6.996-10.873 5.026-5.265 6.85-6.605 13.063-9.593 5.301-2.55 6.092-2.817 9.774-3.305 4.41-.584 7.65-.552 10.081.102Z" fill="#FA007A"/><path d="M22.01 26.293c-1.206.785-2.7 2.126-3.318 2.982-.98 1.355-1.024 1.625-.342 2.1.952.662 1.12.586 2.57-1.17.63-.762 1.78-1.835 2.553-2.383 1.147-.813 1.345-1.178 1.07-1.977-.334-.965-.37-.959-2.532.448Z" fill="#FA007A"/><path fill-rule="evenodd" clip-rule="evenodd" d="M44.328 22.167c-2.286-2.655-6.717-4.972-10.365-5.42-6.458-.792-12.612 1.481-17.486 6.46-3.157 3.224-4.568 5.544-5.563 9.142-1.559 5.634-1.092 9.627 1.715 14.687 1.758 3.168 2.233 3.726 4.784 5.626 3.315 2.468 7.674 3.77 12.002 3.587 3.925-.167 9.357-2.642 12.54-5.714 2.329-2.247 5.341-7.156 5.997-9.772.736-2.935.939-6.69.509-9.43-.45-2.875-2.358-7.103-4.133-9.166Zm-12.769-3.228c4.934.126 7.92 1.358 10.818 4.464 2.296 2.46 4.08 6.81 4.124 10.05.02 1.532-.458 4.323-.458 4.323s-1.066 5.257-3.365 8.489c-2.041 2.87-2.558 3.34-5.72 5.2-2.586 1.523-3.361 1.681-3.361 1.681s-2.678.582-4.258.692c-5.111.357-8.875-1.235-12.384-4.334-1.357-1.198-1.935-2.093-3.125-4.84-1.949-4.499-2.09-7.724-.535-12.248 1.538-4.473 3.66-7.407 7.102-9.817 4.028-2.82 6.921-3.768 11.162-3.66Z" fill="#FA007A"/><path d="M39.233 23.536c-2.09-1.506-2.863-1.572-3.212-.272-.276 1.027-.234 1.095.945 1.524.68.247 1.35.674 1.49.949.267.524 2.087-.177 2.138-.824.017-.206-.596-.826-1.36-1.377ZM37.067 34.27c-.209.107-.249.451-.088.765.16.314.462.484.671.377.209-.107.249-.451.088-.765-.16-.314-.462-.483-.671-.377ZM38.06 38.56c-.313.16-.482.462-.375.671.107.21.451.25.764.09.314-.16.483-.463.376-.672-.107-.21-.45-.25-.764-.09ZM42.33 37.67c-.459-.148-.876.499-.631.978.1.197.439.227.752.067.588-.3.526-.834-.12-1.044ZM41.259 33.568c-.313.16-.483.462-.376.672.107.209.451.249.765.089.313-.16.482-.462.375-.672-.107-.209-.45-.25-.764-.089ZM45.23 32.609c-.585.595-.283 1.473.388 1.13a.678.678 0 0 0 .294-.909c-.17-.331-.476-.431-.682-.221ZM44.709 28.288c-.66-.215-1.028.175-.725.77.16.314.548.44.862.28.593-.304.524-.836-.137-1.05ZM40.455 29.182c-.348.178-.477.476-.288.663.19.186.508.256.706.155.198-.102.328-.4.288-.663-.04-.263-.358-.333-.706-.155ZM38.639 42.582c-.331.169-.43.476-.22.682.594.586 1.472.285 1.129-.387a.678.678 0 0 0-.91-.295ZM34.862 43.551c-.313.16-.482.463-.375.672.107.21.45.25.764.09s.483-.463.376-.672c-.107-.21-.451-.25-.765-.09ZM31.06 44.148c-.187.19-.256.507-.155.706.102.198.4.328.663.289.262-.04.332-.358.154-.707-.178-.348-.477-.478-.663-.288ZM31.854 48.446c-.209.107-.297.355-.197.552.1.197.408.377.683.4.275.022.364-.227.197-.553-.166-.326-.474-.505-.683-.399ZM35.662 47.46c-.209.107-.249.451-.088.765.16.314.462.483.67.377.21-.107.25-.451.09-.765-.161-.314-.463-.483-.672-.377ZM39.876 46.746c-.325.167-.505.474-.398.683.107.21.355.299.552.198.197-.1.376-.408.398-.683.022-.275-.226-.364-.552-.198ZM28.108 49.24c-.66-.214-1.027.176-.724.77.16.314.548.44.861.28.594-.303.524-.835-.137-1.05ZM23.855 50.135c-.314.16-.483.462-.376.671.107.21.451.25.764.09.314-.16.483-.463.376-.672-.107-.21-.45-.25-.764-.09ZM42.862 41.863c-.209.107-.249.451-.088.765.16.314.462.483.671.377.209-.107.249-.451.088-.765-.16-.314-.462-.483-.671-.377Z" fill="#FA007A"/><path fill-rule="evenodd" clip-rule="evenodd" d="M53.62 7.188c-2.249-1.752-6.156-3.775-8.514-4.408-2.431-.654-5.67-.686-10.081-.102-3.682.488-4.473.755-9.774 3.305-6.213 2.988-8.037 4.328-13.063 9.593-3.08 3.226-4.936 6.111-6.996 10.873-2.043 4.72-2.638 8.046-2.364 13.205.167 3.135.488 4.557 1.656 7.326 1.443 3.422 4.87 8.792 5.915 9.268.297.135.884.609 1.306 1.053 1.47 1.551 7.921 4.845 10.801 5.515 3.806.885 9.4.833 12.798-.12 3.66-1.027 10.016-4.606 12.272-6.91 5.385-5.498 8.696-10.807 10.93-17.524 1.741-5.234 1.992-6.707 2.07-12.164.082-5.738-.644-8.965-3.081-13.695-1.599-3.1-2.2-3.911-3.874-5.215Zm-19.657 9.56c3.648.447 8.079 2.764 10.364 5.419 1.776 2.063 3.683 6.291 4.134 9.166.43 2.74.227 6.495-.509 9.43-.656 2.616-3.668 7.525-5.997 9.772-3.183 3.072-8.615 5.547-12.54 5.714-4.328.184-8.687-1.119-12.002-3.587-2.551-1.9-3.026-2.458-4.784-5.626-2.807-5.06-3.274-9.053-1.715-14.687.995-3.598 2.406-5.918 5.563-9.142 4.874-4.979 11.028-7.252 17.486-6.46Z" fill="#FAF5E5"/><path fill-rule="evenodd" clip-rule="evenodd" d="M42.377 23.403c-2.898-3.106-5.884-4.338-10.818-4.464-4.24-.108-7.134.84-11.162 3.66-3.442 2.41-5.564 5.343-7.102 9.817-1.554 4.524-1.414 7.75.535 12.248 1.19 2.747 1.768 3.642 3.125 4.84 3.509 3.099 7.273 4.691 12.385 4.334 1.579-.11 4.257-.692 4.257-.692s.775-.157 3.362-1.68c3.16-1.86 3.677-2.331 5.72-5.201 2.298-3.232 3.364-8.49 3.364-8.49s.478-2.79.458-4.321c-.044-3.241-1.828-7.59-4.124-10.05Zm1.607 5.655c-.303-.595.064-.985.725-.77.66.214.73.746.137 1.05a.642.642 0 0 1-.861-.28Zm1.634 4.682c-.67.342-.973-.536-.388-1.131.206-.21.513-.11.682.221.169.331.037.74-.294.91Zm-9.597-10.476c.349-1.3 1.123-1.234 3.212.272.765.551 1.378 1.17 1.361 1.377-.05.647-1.87 1.348-2.138.824-.14-.275-.81-.701-1.49-.949-1.18-.43-1.221-.497-.945-1.524Zm4.146 6.58c-.19-.186-.06-.484.288-.662.349-.178.666-.108.706.155.04.263-.09.561-.288.663-.198.1-.516.031-.706-.155Zm.716 4.396c-.107-.21.063-.512.376-.672.313-.16.657-.12.764.09.107.209-.062.51-.375.67-.314.161-.658.12-.765-.088Zm.816 4.408c-.245-.48.172-1.126.631-.977.647.21.709.744.121 1.044-.313.16-.652.13-.752-.067Zm1.075 3.98c-.16-.314-.12-.658.088-.765.209-.106.511.063.671.377.16.314.121.658-.088.764-.209.107-.511-.062-.671-.376Zm-5.795-7.593c-.16-.314-.12-.658.088-.764.209-.107.511.062.671.376.16.314.121.658-.088.765-.209.107-.511-.063-.671-.377Zm.706 4.196c-.107-.209.062-.511.376-.671.313-.16.657-.12.764.09.107.208-.062.51-.376.67-.313.16-.657.12-.764-.089Zm.733 4.033c-.21-.206-.11-.513.22-.682a.678.678 0 0 1 .91.295c.343.672-.535.973-1.13.387Zm1.06 4.165c-.107-.209.073-.516.398-.683.326-.166.574-.077.552.198-.022.275-.201.583-.398.683-.197.1-.445.012-.552-.198Zm-4.991-3.206c-.107-.21.062-.511.375-.672.314-.16.658-.12.765.09.107.209-.062.511-.376.671-.313.16-.657.12-.764-.089Zm1.087 4.002c-.16-.314-.121-.658.088-.765.209-.106.51.063.671.377.16.314.12.658-.088.765-.209.106-.511-.063-.671-.377Zm-16.882-18.95c.618-.856 2.112-2.197 3.319-2.982 2.162-1.407 2.198-1.413 2.531-.448.276.799.078 1.165-1.069 1.977-.773.548-1.922 1.62-2.553 2.384-1.45 1.755-1.618 1.83-2.57 1.169-.682-.475-.638-.745.342-2.1Zm12.213 15.579c-.101-.199-.032-.517.154-.706.186-.19.485-.06.663.288.178.35.108.667-.154.707-.263.04-.561-.09-.663-.29Zm.752 4.144c-.1-.197-.012-.445.197-.552.21-.106.517.073.683.4.167.325.078.574-.197.551-.275-.022-.582-.202-.683-.399Zm-4.273 1.012c-.303-.594.064-.984.724-.77.661.215.73.747.137 1.05a.642.642 0 0 1-.861-.28Zm-3.905.796c-.107-.21.062-.511.376-.671.313-.16.657-.12.764.089.107.209-.062.511-.376.671-.313.16-.657.12-.764-.089Z" fill="#FAF5E5"/></svg>
